dist/img/svg/partners__slide__12.svg

<svg width="148" height="53" viewBox="0 0 148 53" fill="none" xmlns="http://www.w3.org/2000/svg">
<g opacity="0.73">
<path fill-rule="evenodd" clip-rule="evenodd" d="M41.3174 41.1199C39.0194 44.4715 35.9373 47.2134 32.3382 49.1081C28.7392 51.0027 24.7316 51.9929 20.6627 51.9929C16.5937 51.9929 12.5862 51.0027 8.98709 49.1081C5.38802 47.2134 2.30597 44.4715 0.00793457 41.1199L1.6742 40.1497C3.8029 43.2088 6.64182 45.7082 9.94844 47.4343C13.2551 49.1604 16.9311 50.062 20.6627 50.062C24.3942 50.062 28.0703 49.1604 31.3769 47.4343C34.6835 45.7082 37.5224 43.2088 39.6511 40.1497L41.3174 41.1199Z" fill="black"/>
<path fill-rule="evenodd" clip-rule="evenodd" d="M20.6627 2.00002C24.7333 1.99485 28.7435 2.98355 32.3436 4.87994C35.9437 6.77634 39.0245 9.52287 41.3174 12.8801L39.6511 13.8503C37.5224 10.7912 34.6835 8.29181 31.3769 6.56569C28.0703 4.83957 24.3942 3.93801 20.6627 3.93801C16.9311 3.93801 13.2551 4.83957 9.94844 6.56569C6.64182 8.29181 3.8029 10.7912 1.6742 13.8503L0.00793457 12.8801C2.30086 9.52287 5.38165 6.77634 8.98175 4.87994C12.5819 2.98355 16.592 1.99485 20.6627 2.00002Z" fill="black"/>
<path fill-rule="evenodd" clip-rule="evenodd" d="M36.3185 38.2439C34.5294 40.7128 32.179 42.7229 29.4605 44.1092C26.7419 45.4954 23.7327 46.2182 20.68 46.2182C17.6272 46.2182 14.618 45.4954 11.8995 44.1092C9.1809 42.7229 6.83054 40.7128 5.04138 38.2439L7.54078 36.7886C9.07074 38.8188 11.0526 40.4662 13.3299 41.6008C15.6071 42.7353 18.1174 43.3259 20.6626 43.3259C23.2078 43.3259 25.7181 42.7353 27.9954 41.6008C30.2726 40.4662 32.2545 38.8188 33.7844 36.7886L36.3185 38.2439Z" fill="#404040"/>
<path fill-rule="evenodd" clip-rule="evenodd" d="M20.6626 7.75195C23.7204 7.75543 26.7337 8.48272 29.4552 9.87411C32.1768 11.2655 34.5289 13.2813 36.3185 15.7561L33.7844 17.2114C32.2545 15.1812 30.2726 13.5337 27.9954 12.3992C25.7181 11.2647 23.2078 10.6741 20.6626 10.6741C18.1174 10.6741 15.6071 11.2647 13.3299 12.3992C11.0526 13.5337 9.07074 15.1812 7.54078 17.2114L5.04138 15.7561C6.82758 13.2861 9.17417 11.2731 11.8892 9.88198C14.6043 8.4908 17.6107 7.7609 20.6626 7.75195Z" fill="#404040"/>
<path fill-rule="evenodd" clip-rule="evenodd" d="M30.4173 34.8483C29.239 36.2964 27.752 37.464 26.0645 38.2659C24.377 39.0678 22.5316 39.4839 20.6627 39.4839C18.7937 39.4839 16.9483 39.0678 15.2608 38.2659C13.5734 37.464 12.0863 36.2964 10.9081 34.8483L14.31 32.8733C15.1225 33.7447 16.1055 34.4403 17.1982 34.9171C18.291 35.394 19.4701 35.6418 20.6627 35.6453C21.8565 35.6502 23.0383 35.4061 24.1322 34.9288C25.2261 34.4514 26.2081 33.7513 27.0153 32.8733L30.4173 34.8483Z" fill="#5A5A5A"/>
<path fill-rule="evenodd" clip-rule="evenodd" d="M20.6627 14.5086C22.5335 14.5021 24.3818 14.9161 26.0704 15.7199C27.7591 16.5236 29.2447 17.6966 30.4173 19.1517L27.0153 21.1268C26.2081 20.2487 25.2261 19.5486 24.1322 19.0713C23.0383 18.594 21.8565 18.3499 20.6627 18.3548C19.4701 18.3583 18.291 18.6061 17.1982 19.0829C16.1055 19.5597 15.1225 20.2554 14.31 21.1268L10.9081 19.1517C12.0823 17.6985 13.5683 16.5269 15.2566 15.7233C16.9448 14.9197 18.7923 14.5046 20.6627 14.5086Z" fill="#5A5A5A"/>
<path fill-rule="evenodd" clip-rule="evenodd" d="M3.09742 34.9176C1.97558 32.4282 1.39551 29.7297 1.39551 27.0001C1.39551 24.2704 1.97558 21.5719 3.09742 19.0825L4.76368 20.0527C3.82505 22.2491 3.34118 24.6122 3.34118 27.0001C3.34118 29.3879 3.82505 31.751 4.76368 33.9474L3.09742 34.9176Z" fill="black"/>
<path fill-rule="evenodd" clip-rule="evenodd" d="M38.2278 19.0825C39.3496 21.5719 39.9297 24.2704 39.9297 27.0001C39.9297 29.7297 39.3496 32.4282 38.2278 34.9176L36.5615 33.9474C37.5222 31.7568 38.0181 29.3914 38.0181 27.0001C38.0181 24.6088 37.5222 22.2433 36.5615 20.0527L38.2278 19.0825Z" fill="black"/>
<path fill-rule="evenodd" clip-rule="evenodd" d="M8.99874 31.5219C7.84124 28.6181 7.84124 25.3821 8.99874 22.4783L10.665 23.4485C9.87944 25.7513 9.87944 28.2489 10.665 30.5517L8.99874 31.5219Z" fill="black"/>
<path fill-rule="evenodd" clip-rule="evenodd" d="M32.3613 22.4783C33.4714 25.391 33.4714 28.6092 32.3613 31.5219L30.6603 30.5517C31.4458 28.2489 31.4458 25.7513 30.6603 23.4485L32.3613 22.4783Z" fill="black"/>
<path fill-rule="evenodd" clip-rule="evenodd" d="M20.6626 22.2011C21.6184 22.2011 22.5527 22.4844 23.347 23.0152C24.1412 23.546 24.7596 24.3003 25.1238 25.1824C25.4879 26.0645 25.5815 27.0346 25.3924 27.9698C25.2034 28.9051 24.7404 29.7632 24.0621 30.4354C23.3838 31.1075 22.5208 31.5635 21.5825 31.7454C20.6442 31.9273 19.673 31.827 18.7919 31.4571C17.9108 31.0873 17.1597 30.4645 16.6337 29.668C16.1077 28.8714 15.8305 27.9368 15.8374 26.9828C15.8374 26.3519 15.9624 25.7273 16.2054 25.1448C16.4483 24.5624 16.8042 24.0338 17.2528 23.5893C17.7013 23.1448 18.2335 22.7933 18.8187 22.555C19.4039 22.3168 20.0306 22.1965 20.6626 22.2011Z" fill="#797979"/>
<path fill-rule="evenodd" clip-rule="evenodd" d="M61.8861 15.6715V26.2831H64.1452V16.6753L66.5759 26.2831H69.0638L71.4659 16.6753V26.2831H73.7536V14.3809H70.1505L67.8342 23.4438L65.4607 14.3809H63.0872C62.7585 14.3958 62.4487 14.5392 62.2242 14.7805C61.9997 15.0217 61.8783 15.3416 61.8861 15.6715ZM84.3056 23.4438H82.6184C82.468 23.439 82.3183 23.4673 82.18 23.5268C82.0417 23.5862 81.918 23.6754 81.8177 23.788C81.4276 24.1951 80.8935 24.432 80.3307 24.4476C79.1869 24.4476 78.5864 23.7306 78.5006 22.3253H84.4486C84.6202 18.6829 83.2476 16.9047 80.3307 16.9047C77.4139 16.9047 76.0985 18.4821 76.0985 21.637C76.0985 24.7918 77.4997 26.3979 80.2735 26.4839C82.5612 26.4839 83.8195 25.4227 84.3056 23.4438ZM80.2735 18.7976C81.2744 18.7976 81.8463 19.4286 81.9893 20.6618H78.5292C78.7007 19.4286 79.3013 18.7976 80.2735 18.7976ZM86.6505 24.6771H86.0786V28.004H88.3091V26.2831H93.0561V28.004H95.258V24.6771H94.6289V18.1666C94.6289 17.3923 94.2285 17.0194 93.4278 17.0194H87.9659C87.9659 20.3177 87.7658 22.3826 86.6505 24.6771ZM90.0535 19.0844H92.3698V24.6771H88.9382C89.1189 24.2407 89.2624 23.7897 89.3672 23.3291C89.7389 21.9524 90.0535 20.7479 90.0535 19.0844ZM99.9764 19.0844H103.837V26.2831H106.067V18.3961C106.067 17.4783 105.553 17.0194 104.58 17.0194H97.7459V26.2831H98.4894C99.4617 26.2831 99.9478 25.8243 99.9764 24.9352V19.0844ZM110.814 28.7496C110.814 29.524 110.443 29.8969 109.671 29.8969H108.498V21.0633C108.641 18.2814 110.071 16.9334 112.845 16.9334C115.619 16.9334 117.134 18.4821 117.134 21.6083C117.134 24.7344 115.905 26.3692 113.445 26.4552C112.918 26.4802 112.394 26.3597 111.93 26.1069C111.466 25.854 111.08 25.4786 110.814 25.0212V28.7496ZM112.788 24.3903C114.046 24.3903 114.703 23.5012 114.761 21.6943C114.818 19.8875 114.074 18.9123 112.759 18.9123C111.444 18.9123 110.814 19.8301 110.814 21.6943C110.814 23.5585 111.529 24.3903 112.788 24.3903ZM127.143 23.4438H125.427C125.281 23.4392 125.135 23.4678 125.002 23.5274C124.868 23.587 124.75 23.676 124.655 23.788C124.254 24.1968 123.711 24.4334 123.139 24.4476C122.024 24.4476 121.395 23.7306 121.309 22.3253H127.286C127.457 18.6829 126.085 16.9047 123.139 16.9047C120.194 16.9047 118.936 18.4821 118.936 21.637C118.936 24.7918 120.337 26.3979 123.111 26.4839C125.398 26.4839 126.628 25.4227 127.143 23.4438ZM123.111 18.7976C124.112 18.7976 124.684 19.4286 124.827 20.6618H121.366C121.538 19.4286 122.11 18.7976 123.111 18.7976ZM129.488 24.6771H128.887V28.004H131.146V26.2831H135.865V28.004H138.095V24.6771H137.438V18.1666C137.466 17.3923 137.066 17.0194 136.236 17.0194H130.803C130.803 20.3177 130.603 22.3826 129.488 24.6771ZM132.891 19.0844H135.207V24.6771H131.775C131.89 24.3616 132.033 23.9027 132.204 23.3291C132.576 21.9524 132.891 20.7479 132.891 19.0844ZM72.0378 37.6979H69.6643C69.407 38.9885 68.5491 39.8489 67.0049 39.8489C64.803 39.8489 63.8307 38.1854 63.8307 35.8623C63.8307 33.5392 64.8315 31.8758 67.0907 31.8758C68.2345 31.8758 69.0352 32.306 69.4356 33.1664C69.5243 33.3872 69.6793 33.5748 69.8792 33.7033C70.079 33.8318 70.3137 33.8947 70.5508 33.8834H72.0378C71.8948 32.5928 71.4373 31.5603 70.608 30.8146C69.7787 30.0689 68.5491 29.7248 67.0907 29.7248C63.3445 29.7248 61.4286 32.0192 61.4286 35.8623C61.4286 39.7055 63.2302 41.9999 66.8905 41.9999C69.8931 41.9999 71.809 40.4225 72.0378 37.6979ZM83.5335 33.3098C83.5335 30.872 82.1609 29.9255 79.7016 29.9255H75.212C74.8833 29.933 74.5705 30.0693 74.3407 30.3051C74.1109 30.541 73.9823 30.8577 73.9824 31.1875V41.7991H76.413V37.1816H78.9867C80.4165 37.1816 80.6739 37.6405 80.7883 39.0745C80.7589 39.745 80.7876 40.4167 80.8741 41.0821C80.8928 41.3321 80.9608 41.5758 81.0742 41.7991H83.7337C83.6095 41.7141 83.5098 41.5978 83.4445 41.4618C83.3793 41.3259 83.3508 41.1752 83.3619 41.0248L83.2476 38.7017C83.1904 37.9273 83.1046 37.325 82.8758 36.9235C82.6066 36.5357 82.213 36.2523 81.7605 36.1205C82.8758 35.805 83.5335 34.8012 83.5335 33.3098ZM81.0742 33.5392C81.0742 34.6865 80.4165 35.1167 79.2727 35.1167H76.413V31.9905H79.4157C80.5023 31.9905 81.0742 32.4494 81.0742 33.5392ZM85.6782 31.1875V41.7991H87.9659V32.22L90.3966 41.7991H92.8845L95.2866 32.22V41.7991H97.5743V29.9255H93.9712L91.6549 38.9885L89.2528 29.9255H86.9079C86.5792 29.933 86.2664 30.0693 86.0366 30.3051C85.8068 30.541 85.6782 30.8577 85.6782 31.1875Z" fill="black"/>
</g>
</svg>

<svg width="148" height="53" viewBox="0 0 148 53" fill="none" xmlns="http://www.w3.org/2000/svg"><g opacity=".73" fill-rule="evenodd" clip-rule="evenodd"><path d="M41.317 41.12a25.015 25.015 0 01-8.979 7.988 25.065 25.065 0 01-23.35 0 25.015 25.015 0 01-8.98-7.988l1.666-.97a23.106 23.106 0 008.274 7.284 23.154 23.154 0 0021.429 0 23.106 23.106 0 008.274-7.284l1.666.97zM20.663 2c4.07-.005 8.08.984 11.68 2.88a24.944 24.944 0 018.974 8l-1.666.97a23.106 23.106 0 00-8.274-7.284 23.154 23.154 0 00-21.429 0 23.106 23.106 0 00-8.274 7.284l-1.666-.97a24.944 24.944 0 018.974-8A24.996 24.996 0 0120.662 2z" fill="#000"/><path d="M36.319 38.244a19.292 19.292 0 01-6.859 5.865 19.33 19.33 0 01-17.56 0 19.292 19.292 0 01-6.859-5.865l2.5-1.455A16.413 16.413 0 0013.33 41.6a16.444 16.444 0 0020.454-4.812l2.535 1.455zM20.663 7.752c3.057.003 6.07.73 8.792 2.122a19.325 19.325 0 016.864 5.882l-2.535 1.455a16.412 16.412 0 00-5.789-4.812 16.445 16.445 0 00-14.665 0 16.412 16.412 0 00-5.79 4.812l-2.499-1.455a19.326 19.326 0 016.848-5.874 19.365 19.365 0 018.774-2.13z" fill="#404040"/><path d="M30.417 34.848a12.563 12.563 0 01-9.754 4.636 12.586 12.586 0 01-9.755-4.636l3.402-1.975a8.713 8.713 0 006.353 2.772 8.588 8.588 0 006.352-2.772l3.402 1.975zm-9.754-20.339a12.481 12.481 0 019.754 4.643l-3.402 1.975a8.573 8.573 0 00-6.352-2.772 8.727 8.727 0 00-6.353 2.772l-3.402-1.975a12.516 12.516 0 019.755-4.643z" fill="#5A5A5A"/><path d="M3.097 34.918a19.27 19.27 0 010-15.835l1.667.97a17.678 17.678 0 000 13.894l-1.667.97zm35.131-15.836a19.27 19.27 0 010 15.836l-1.666-.97a17.297 17.297 0 000-13.895l1.666-.97zM8.999 31.522a12.21 12.21 0 010-9.044l1.666.97a11 11 0 000 7.104l-1.666.97zm23.362-9.044a12.695 12.695 0 010 9.044l-1.7-.97a11 11 0 000-7.104l1.7-.97z" fill="#000"/><path d="M20.663 22.201a4.832 4.832 0 014.46 2.981 4.808 4.808 0 01-1.06 5.253 4.828 4.828 0 01-8.226-3.452 4.773 4.773 0 011.416-3.394 4.792 4.792 0 013.41-1.388z" fill="#797979"/><path d="M61.886 15.671v10.612h2.26v-9.608l2.43 9.608h2.488l2.402-9.608v9.608h2.288V14.381H70.15l-2.316 9.063-2.373-9.063h-2.374a1.256 1.256 0 00-1.2 1.29zm22.42 7.773h-1.688a1.027 1.027 0 00-.8.344c-.39.407-.924.644-1.487.66-1.144 0-1.745-.717-1.83-2.123h5.948c.171-3.642-1.201-5.42-4.118-5.42-2.917 0-4.233 1.577-4.233 4.732 0 3.155 1.402 4.76 4.175 4.847 2.288 0 3.547-1.061 4.033-3.04zm-4.032-4.646c1 0 1.572.63 1.715 1.864h-3.46c.172-1.233.772-1.864 1.745-1.864zm6.376 5.88h-.571v3.326h2.23v-1.72h4.747v1.72h2.202v-3.327h-.63v-6.51c0-.775-.4-1.148-1.2-1.148h-5.462c0 3.299-.2 5.364-1.316 7.658zm3.403-5.594h2.317v5.593h-3.432a8.56 8.56 0 00.43-1.348c.37-1.377.686-2.581.686-4.245zm9.923 0h3.861v7.2h2.23v-7.888c0-.918-.514-1.377-1.487-1.377h-6.834v9.264h.743c.973 0 1.459-.459 1.487-1.348v-5.85zm10.838 9.666c0 .774-.371 1.147-1.143 1.147h-1.173v-8.834c.143-2.782 1.573-4.13 4.347-4.13 2.774 0 4.289 1.55 4.289 4.675 0 3.126-1.229 4.761-3.689 4.847a2.881 2.881 0 01-2.631-1.434v3.729zm1.974-4.36c1.258 0 1.915-.889 1.973-2.696.057-1.806-.687-2.782-2.002-2.782-1.315 0-1.945.918-1.945 2.782 0 1.864.715 2.696 1.974 2.696zm14.355-.946h-1.716a.967.967 0 00-.772.344 2.2 2.2 0 01-1.516.66c-1.115 0-1.744-.717-1.83-2.123h5.977c.171-3.642-1.201-5.42-4.147-5.42-2.945 0-4.203 1.577-4.203 4.732 0 3.155 1.401 4.76 4.175 4.847 2.287 0 3.517-1.061 4.032-3.04zm-4.032-4.646c1.001 0 1.573.63 1.716 1.864h-3.461c.172-1.233.744-1.864 1.745-1.864zm6.377 5.88h-.601v3.326h2.259v-1.72h4.719v1.72h2.23v-3.327h-.657v-6.51c.028-.775-.372-1.148-1.202-1.148h-5.433c0 3.299-.2 5.364-1.315 7.658zm3.403-5.594h2.316v5.593h-3.432c.115-.315.258-.774.429-1.348.372-1.377.687-2.581.687-4.245zM72.038 37.698h-2.374c-.257 1.29-1.115 2.15-2.66 2.15-2.201 0-3.173-1.663-3.173-3.986 0-2.323 1-3.986 3.26-3.986 1.144 0 1.944.43 2.345 1.29a1.146 1.146 0 001.115.717h1.487c-.143-1.29-.6-2.323-1.43-3.068-.83-.746-2.059-1.09-3.517-1.09-3.746 0-5.662 2.294-5.662 6.137 0 3.843 1.801 6.138 5.462 6.138 3.002 0 4.918-1.578 5.147-4.302zm11.496-4.388c0-2.438-1.373-3.385-3.832-3.385h-4.49a1.257 1.257 0 00-1.23 1.262V41.8h2.431v-4.617h2.574c1.43 0 1.687.459 1.801 1.892-.03.671 0 1.343.086 2.008.019.25.087.494.2.717h2.66a.86.86 0 01-.372-.774l-.114-2.323c-.058-.775-.143-1.377-.372-1.779a2.059 2.059 0 00-1.116-.803c1.116-.315 1.773-1.319 1.773-2.81zm-2.46.23c0 1.147-.657 1.577-1.801 1.577h-2.86V31.99h3.003c1.086 0 1.658.458 1.658 1.548zm4.604-2.352v10.611h2.288V32.22l2.43 9.58h2.489l2.402-9.58v9.58h2.287V29.925h-3.603l-2.316 9.063-2.402-9.063h-2.345a1.257 1.257 0 00-1.23 1.262z" fill="#000"/></g></svg>
